_includes/icons/ios-shutdown.svg

<svg fill="#666" height="50" viewBox="0 0 50 50" width="50" xmlns="http://www.w3.org/2000/svg"><path d="m24.984375 1.984375c-.550781.011719-.992187.464844-.984375 1.015625v22c-.003906.359375.183594.695313.496094.878906.3125.179688.695312.179688 1.007812 0 .3125-.183593.5-.519531.496094-.878906v-22c.003906-.269531-.101562-.53125-.292969-.722656-.191406-.191406-.453125-.296875-.722656-.292969zm-6.9375 1.15625c-.125-.003906-.25.015625-.363281.054688-9.117188 3.058593-15.683594 11.671875-15.683594 21.804687 0 12.691406 10.308594 23 23 23s23-10.308594 23-23c0-10.132812-6.566406-18.746094-15.683594-21.804687-.523437-.175782-1.089843.105468-1.265625.628906-.175781.523437.105469 1.089844.632813 1.269531 8.316406 2.789063 14.316406 10.636719 14.316406 19.90625 0 11.609375-9.390625 21-21 21s-21-9.390625-21-21c0-9.269531 6-17.117187 14.316406-19.90625.464844-.152344.753907-.609375.683594-1.09375-.066406-.480469-.46875-.84375-.953125-.859375z"/></svg>

<svg xmlns="http://www.w3.org/2000/svg" viewBox="0 0 50 50" width="50" height="50" fill="#666"><path d="M 24.984375 1.984375 C 24.433594 1.996094 23.992188 2.449219 24 3 L 24 25 C 23.996094 25.359375 24.183594 25.695313 24.496094 25.878906 C 24.808594 26.058594 25.191406 26.058594 25.503906 25.878906 C 25.816406 25.695313 26.003906 25.359375 26 25 L 26 3 C 26.003906 2.730469 25.898438 2.46875 25.707031 2.277344 C 25.515625 2.085938 25.253906 1.980469 24.984375 1.984375 Z M 18.046875 3.140625 C 17.921875 3.136719 17.796875 3.15625 17.683594 3.195313 C 8.566406 6.253906 2 14.867188 2 25 C 2 37.691406 12.308594 48 25 48 C 37.691406 48 48 37.691406 48 25 C 48 14.867188 41.433594 6.253906 32.316406 3.195313 C 31.792969 3.019531 31.226563 3.300781 31.050781 3.824219 C 30.875 4.347656 31.15625 4.914063 31.683594 5.09375 C 40 7.882813 46 15.730469 46 25 C 46 36.609375 36.609375 46 25 46 C 13.390625 46 4 36.609375 4 25 C 4 15.730469 10 7.882813 18.316406 5.09375 C 18.78125 4.941406 19.070313 4.484375 19 4 C 18.933594 3.519531 18.53125 3.15625 18.046875 3.140625 Z"/></svg>
